src/assets/images/logo-memocracy.svg

<svg xmlns="http://www.w3.org/2000/svg" viewBox="0 0 841.24 841.24" xmlns:v="https://vecta.io/nano"><path d="M133.8 155.72v146.1L30.3 405.32c3.72-96.11 42.33-183.43 103.5-249.6zm0 383.7v146.1c-61.17-66.17-99.78-153.49-103.5-249.6l103.5 103.5zm168.27-405.45l-.21-.05v-.12H155.72c66.17-61.17 153.49-99.78 249.6-103.5L301.86 133.76l.21.21zm383.45-.17h-146.1L435.92 30.3c96.11 3.72 183.43 42.33 249.6 103.5zm-280.2 677.14c-96.12-3.72-183.44-42.34-249.62-103.51h146.11l103.51 103.51zm405.62-405.62l-103.5-101.06h0V155.72c61.17 66.17 99.78 153.49 103.5 249.6zm-125.4 302.11c-66.18 61.17-153.5 99.79-249.62 103.51l103.51-103.51h146.11zm125.4-271.51c-3.72 96.11-42.33 183.43-103.5 249.6v-146.1l103.5-103.5z" fill="#005477"/><path d="M385.62 435.12l-99.3 99.3H145.84l98.88-99.3zm20.5-190.03v140.52l-99.26-99.26V145.83zm128.73 310.25v139.59l-99.73-99.73V455.61zm161.74-247.3l-98.07 98.08H455.64l98.08-98.08z" fill="#fff"/><path d="M385.63 406.12H244.42l-98.46-99.25 141.14.72zm20.49 49.52v140.43l-99.31 99.29V554.95zm128.3-309.77v140.45l-99.3 99.3V245.18zm160.95 388.55H554.93l-99.3-99.3h140.44z" fill="#0e5773"/><path d="M161.8 567.42h112.01v112.01H161.8zm179.7 140.039l79.652-79.641 79.216 79.228-79.652 79.641zM567.85 567.42h111.59v112.01H567.85zm-.43-405.62h112.02v113.24H567.42zm-225.958-28.036l79.16-79.16 79.202 79.202-79.16 79.16zM212.45 420.76l-78.69 79.02-79.16-79.16 79.17-79.17zm61.41-258.96v112.72l-112.06-.57V161.8zm355.588 260.044l79.202-79.202 77.979 77.979-79.202 79.202z" fill="#a1cce4"/><path d="M808.18 256.89c-21.19-50.09-51.51-95.07-90.14-133.69-38.62-38.63-83.6-68.95-133.69-90.14C532.48 11.12 477.4 0 420.62 0S308.76 11.12 256.89 33.06C206.8 54.25 161.82 84.57 123.2 123.2c-38.63 38.62-68.95 83.6-90.14 133.69C11.12 308.76 0 363.84 0 420.62s11.12 111.86 33.06 163.73c21.19 50.09 51.51 95.07 90.14 133.69 38.62 38.63 83.6 68.95 133.69 90.14 51.87 21.94 106.95 33.06 163.73 33.06s111.86-11.12 163.73-33.06c50.09-21.19 95.07-51.51 133.69-90.14 38.63-38.62 68.95-83.6 90.14-133.69 21.94-51.87 33.06-106.95 33.06-163.73s-11.12-111.86-33.06-163.73zM707.44 155.72c61.17 66.17 99.78 153.49 103.5 249.6l-103.5-101.06h0V155.72zm79.2 264.9l-79.2 79.2-77.98-77.98 79.2-79.2 77.98 77.98zm-188.12-14.5H455.64l98.08-98.08h142.87l-98.07 98.08zm-163.4-20.5V245.18l99.3-99.31v140.45l-99.3 99.3zm132.3-110.58V161.8h112.02v113.24H567.42zm118.1-141.24h-146.1L435.92 30.3c96.11 3.72 183.43 42.33 249.6 103.5zm-185.7 0l-79.16 79.16-79.2-79.2 79.16-79.16 79.2 79.2zm35.03 421.54v139.59l-99.73-99.73V455.61l99.73 99.73zM406.12 245.09v140.52l-99.26-99.26V145.83l99.26 99.26zm-.8-214.79L301.86 133.76l.21.21a1.6 1.6 0 0 0-.21-.05v-.12H155.72c66.17-61.17 153.49-99.78 249.6-103.5zM273.86 161.8v112.72l-112.06-.57V161.8h112.06zm13.24 145.79l98.53 98.53H244.42l-98.46-99.25 141.14.72zm119.02 148.05v140.43l-99.31 99.29V554.95l99.31-99.31zm-193.67-34.88l-78.69 79.02-79.16-79.16 79.17-79.17 78.68 79.31zM133.8 155.72v146.1L30.3 405.32c3.72-96.11 42.33-183.43 103.5-249.6zm0 529.8c-61.17-66.17-99.78-153.49-103.5-249.6l103.5 103.5v146.1zm110.92-250.4h140.9l-99.3 99.3H145.84l98.88-99.3zm29.09 132.3v112.01H161.8V567.42h112.01zM155.7 707.43h146.11l103.51 103.51c-96.12-3.72-183.44-42.34-249.62-103.51zm185.71 0l79.64-79.63 79.21 79.21-79.64 79.63-79.21-79.21zm94.51 103.51l103.51-103.51h146.11c-66.18 61.17-153.5 99.79-249.62 103.51zm131.93-131.51V567.42h111.59v112.01H567.85zm-12.92-145.01l-99.3-99.3h140.44l99.3 99.3H554.93zm152.51 151.1v-146.1l103.5-103.5c-3.72 96.11-42.33 183.43-103.5 249.6z"/></svg>

<?xml version="1.0" encoding="utf-8"?>
<!-- Generator: Adobe Illustrator 25.2.1, SVG Export Plug-In . SVG Version: 6.00 Build 0)  -->
<svg version="1.1" id="Warstwa_1" xmlns="http://www.w3.org/2000/svg" xmlns:xlink="http://www.w3.org/1999/xlink" x="0px" y="0px"
	 viewBox="0 0 841.24 841.24" style="enable-background:new 0 0 841.24 841.24;" xml:space="preserve">
<style type="text/css">
	.st0{fill:#005477;}
	.st1{fill:#FFFFFF;}
	.st2{fill:#0E5773;}
	.st3{fill:#A1CCE4;}
</style>
<g>
	<g>
		<path class="st0" d="M133.8,155.72v146.1L30.3,405.32C34.02,309.21,72.63,221.89,133.8,155.72z"/>
		<path class="st0" d="M133.8,539.42v146.1c-61.17-66.17-99.78-153.49-103.5-249.6L133.8,539.42z"/>
		<path class="st0" d="M302.07,133.97c-0.07-0.02-0.14-0.04-0.21-0.05v-0.12H155.72c66.17-61.17,153.49-99.78,249.6-103.5
			L301.86,133.76L302.07,133.97z"/>
		<path class="st0" d="M685.52,133.8h-146.1L435.92,30.3C532.03,34.02,619.35,72.63,685.52,133.8z"/>
		<path class="st0" d="M405.32,810.94c-96.12-3.72-183.44-42.34-249.62-103.51h146.11L405.32,810.94z"/>
		<path class="st0" d="M810.94,405.32l-103.5-101.06l0,0V155.72C768.61,221.89,807.22,309.21,810.94,405.32z"/>
		<path class="st0" d="M685.54,707.43c-66.18,61.17-153.5,99.79-249.62,103.51l103.51-103.51H685.54z"/>
		<path class="st0" d="M810.94,435.92c-3.72,96.11-42.33,183.43-103.5,249.6v-146.1L810.94,435.92z"/>
	</g>
	<g>
		<g>
			<polygon class="st1" points="385.62,435.12 286.32,534.42 145.84,534.42 244.72,435.12 			"/>
		</g>
		<g>
			<polygon class="st1" points="406.12,245.09 406.12,385.61 306.86,286.35 306.86,145.83 			"/>
		</g>
		<g>
			<polygon class="st1" points="534.85,555.34 534.85,694.93 435.12,595.2 435.12,455.61 			"/>
		</g>
		<g>
			<polygon class="st1" points="696.59,308.04 598.52,406.12 455.64,406.12 553.72,308.04 			"/>
		</g>
	</g>
	<g>
		<polygon class="st2" points="385.63,406.12 244.42,406.12 145.96,306.87 287.1,307.59 		"/>
		<polygon class="st2" points="406.12,455.64 406.12,596.07 306.81,695.36 306.81,554.95 		"/>
		<polygon class="st2" points="534.42,145.87 534.42,286.32 435.12,385.62 435.12,245.18 		"/>
		<polygon class="st2" points="695.37,534.42 554.93,534.42 455.63,435.12 596.07,435.12 		"/>
	</g>
	<g>
		<g>
			<rect x="161.8" y="567.42" class="st3" width="112.01" height="112.01"/>
		</g>
		<g>
			
				<rect x="364.57" y="651.23" transform="matrix(0.7072 -0.7071 0.7071 0.7072 -376.809 504.6962)" class="st3" width="112.63" height="112.03"/>
			<rect x="567.85" y="567.42" class="st3" width="111.59" height="112.01"/>
		</g>
		<g>
			<rect x="567.42" y="161.8" class="st3" width="112.02" height="113.24"/>
		</g>
		<g>
			
				<rect x="364.67" y="77.78" transform="matrix(0.7071 -0.7071 0.7071 0.7071 28.6055 336.6235)" class="st3" width="111.95" height="112.01"/>
		</g>
		<g>
			<polygon class="st3" points="212.45,420.76 133.76,499.78 54.6,420.62 133.77,341.45 			"/>
			<polygon class="st3" points="273.86,161.8 273.86,274.52 161.8,273.95 161.8,161.8 			"/>
		</g>
		<g>
			
				<rect x="652.04" y="366.09" transform="matrix(0.7071 -0.7071 0.7071 0.7071 -90.4715 624.0388)" class="st3" width="112.01" height="110.28"/>
			<path d="M808.18,256.89c-21.19-50.09-51.51-95.07-90.14-133.69c-38.62-38.63-83.6-68.95-133.69-90.14
				C532.48,11.12,477.4,0,420.62,0c-56.78,0-111.86,11.12-163.73,33.06C206.8,54.25,161.82,84.57,123.2,123.2
				c-38.63,38.62-68.95,83.6-90.14,133.69C11.12,308.76,0,363.84,0,420.62c0,56.78,11.12,111.86,33.06,163.73
				c21.19,50.09,51.51,95.07,90.14,133.69c38.62,38.63,83.6,68.95,133.69,90.14c51.87,21.94,106.95,33.06,163.73,33.06
				c56.78,0,111.86-11.12,163.73-33.06c50.09-21.19,95.07-51.51,133.69-90.14c38.63-38.62,68.95-83.6,90.14-133.69
				c21.94-51.87,33.06-106.95,33.06-163.73C841.24,363.84,830.12,308.76,808.18,256.89z M707.44,155.72
				c61.17,66.17,99.78,153.49,103.5,249.6l-103.5-101.06l0,0V155.72z M786.64,420.62l-79.2,79.2l-77.98-77.98l79.2-79.2
				L786.64,420.62z M598.52,406.12H455.64l98.08-98.08h142.87L598.52,406.12z M435.12,385.62V245.18l99.3-99.31v140.45
				L435.12,385.62z M567.42,275.04V161.8h112.02v113.24H567.42z M685.52,133.8h-146.1L435.92,30.3
				C532.03,34.02,619.35,72.63,685.52,133.8z M499.82,133.8l-79.16,79.16l-79.2-79.2l79.16-79.16L499.82,133.8z M534.85,555.34
				v139.59l-99.73-99.73V455.61L534.85,555.34z M406.12,245.09v140.52l-99.26-99.26V145.83L406.12,245.09z M405.32,30.3
				L301.86,133.76l0.21,0.21c-0.07-0.02-0.14-0.04-0.21-0.05v-0.12H155.72C221.89,72.63,309.21,34.02,405.32,30.3z M273.86,161.8
				v112.72l-112.06-0.57V161.8H273.86z M287.1,307.59l98.53,98.53H244.42l-98.46-99.25L287.1,307.59z M406.12,455.64v140.43
				l-99.31,99.29V554.95L406.12,455.64z M212.45,420.76l-78.69,79.02L54.6,420.62l79.17-79.17L212.45,420.76z M133.8,155.72v146.1
				L30.3,405.32C34.02,309.21,72.63,221.89,133.8,155.72z M133.8,685.52c-61.17-66.17-99.78-153.49-103.5-249.6l103.5,103.5V685.52z
				 M244.72,435.12h140.9l-99.3,99.3H145.84L244.72,435.12z M273.81,567.42v112.01H161.8V567.42H273.81z M155.7,707.43h146.11
				l103.51,103.51C309.2,807.22,221.88,768.6,155.7,707.43z M341.41,707.43l79.64-79.63l79.21,79.21l-79.64,79.63L341.41,707.43z
				 M435.92,810.94l103.51-103.51h146.11C619.36,768.6,532.04,807.22,435.92,810.94z M567.85,679.43V567.42h111.59v112.01H567.85z
				 M554.93,534.42l-99.3-99.3h140.44l99.3,99.3H554.93z M707.44,685.52v-146.1l103.5-103.5
				C807.22,532.03,768.61,619.35,707.44,685.52z"/>
		</g>
	</g>
</g>
</svg>
